SF_Symbols/humidifier.fill.svg

<?xml version="1.0" encoding="UTF-8"?>
<svg xmlns="http://www.w3.org/2000/svg" xmlns:xlink="http://www.w3.org/1999/xlink" width="24" height="24" viewBox="0 0 24 24" version="1.1">
<g id="surface1">
<path style=" stroke:none;fill-rule:nonzero;fill:rgb(100%,100%,100%);fill-opacity:1;" d="M 5.203125 6.632812 L 18.773438 6.632812 C 18.34375 5.976562 17.890625 5.3125 17.414062 4.640625 C 16.9375 3.96875 16.445312 3.292969 15.9375 2.613281 C 15.6875 2.285156 15.453125 2.011719 15.234375 1.792969 C 15.023438 1.574219 14.78125 1.410156 14.507812 1.300781 C 14.242188 1.191406 13.898438 1.136719 13.476562 1.136719 L 10.511719 1.136719 C 10.089844 1.136719 9.742188 1.191406 9.46875 1.300781 C 9.195312 1.410156 8.953125 1.574219 8.742188 1.792969 C 8.53125 2.011719 8.300781 2.285156 8.050781 2.613281 C 7.542969 3.292969 7.050781 3.96875 6.574219 4.640625 C 6.097656 5.3125 5.640625 5.976562 5.203125 6.632812 Z M 12 13.160156 C 12.703125 13.160156 13.324219 13.363281 13.863281 13.769531 C 14.402344 14.167969 14.773438 14.6875 14.976562 15.328125 L 22.722656 15.328125 C 22.589844 14.34375 22.285156 13.285156 21.808594 12.152344 C 21.332031 11.011719 20.734375 9.824219 20.015625 8.589844 L 3.960938 8.589844 C 3.242188 9.824219 2.644531 11.011719 2.167969 12.152344 C 1.699219 13.285156 1.394531 14.34375 1.253906 15.328125 L 9.011719 15.328125 C 9.214844 14.6875 9.585938 14.167969 10.125 13.769531 C 10.671875 13.363281 11.296875 13.160156 12 13.160156 Z M 12 17.707031 C 12.398438 17.707031 12.730469 17.570312 12.996094 17.296875 C 13.269531 17.023438 13.40625 16.6875 13.40625 16.289062 C 13.40625 15.898438 13.269531 15.566406 12.996094 15.292969 C 12.730469 15.011719 12.398438 14.871094 12 14.871094 C 11.601562 14.871094 11.265625 15.011719 10.992188 15.292969 C 10.71875 15.566406 10.582031 15.898438 10.582031 16.289062 C 10.582031 16.6875 10.71875 17.023438 10.992188 17.296875 C 11.265625 17.570312 11.601562 17.707031 12 17.707031 Z M 9.152344 23.929688 L 14.824219 23.929688 C 16.472656 23.929688 17.867188 23.667969 19.007812 23.144531 C 20.15625 22.621094 21.042969 21.863281 21.667969 20.871094 C 22.292969 19.878906 22.660156 18.683594 22.769531 17.285156 L 14.976562 17.285156 C 14.773438 17.910156 14.402344 18.421875 13.863281 18.820312 C 13.324219 19.21875 12.703125 19.417969 12 19.417969 C 11.296875 19.417969 10.671875 19.21875 10.125 18.820312 C 9.585938 18.421875 9.214844 17.910156 9.011719 17.285156 L 1.21875 17.285156 C 1.328125 18.683594 1.695312 19.878906 2.320312 20.871094 C 2.945312 21.863281 3.828125 22.621094 4.96875 23.144531 C 6.109375 23.667969 7.503906 23.929688 9.152344 23.929688 Z M 9.152344 23.929688 "/>
</g>
</svg>

<svg xmlns="http://www.w3.org/2000/svg" width="24" height="24"><path style="stroke:none;fill-rule:nonzero;fill:#fff;fill-opacity:1" d="M5.203 6.633h13.57c-.43-.656-.882-1.32-1.359-1.992-.477-.672-.969-1.348-1.477-2.028a8.282 8.282 0 0 0-.703-.82 2.049 2.049 0 0 0-.726-.492c-.266-.11-.61-.164-1.031-.164h-2.965c-.422 0-.77.054-1.043.164-.274.11-.516.273-.727.492-.21.219-.441.492-.691.82a89.725 89.725 0 0 0-2.848 4.02ZM12 13.16c.703 0 1.324.203 1.863.61.54.398.91.918 1.114 1.558h7.746c-.133-.984-.438-2.043-.914-3.176a30.384 30.384 0 0 0-1.793-3.562H3.96a30.383 30.383 0 0 0-1.793 3.562c-.469 1.133-.773 2.192-.914 3.176h7.758a3.024 3.024 0 0 1 1.113-1.558c.54-.403 1.2-.618 1.875-.61Zm0 4.547c.398 0 .73-.137.996-.41.274-.274.41-.61.41-1.008 0-.39-.136-.723-.41-.996a1.317 1.317 0 0 0-.996-.422c-.398 0-.734.14-1.008.422-.273.273-.41.605-.41.996 0 .398.137.734.41 1.008.274.273.61.41 1.008.41ZM9.152 23.93h5.672c1.649 0 3.043-.262 4.184-.785 1.148-.524 2.035-1.282 2.66-2.274s.992-2.187 1.102-3.586h-7.793a3.032 3.032 0 0 1-1.114 1.535c-.539.399-1.16.598-1.863.598-.703 0-1.328-.2-1.875-.598-.54-.398-.91-.91-1.113-1.535H1.219c.11 1.399.476 2.594 1.101 3.586s1.508 1.75 2.649 2.274c1.14.523 2.535.785 4.183.785Zm0 0"/></svg>
